X: 106
T: the Tarbolton Reel
R: reel
Z: 2012 John Chambers <jc@trillian.mit.edu>
B: "100 Essential Irish Session Tunes" 1995 Dave Mallinson, ed.
M: 4/4
L: 1/8
K: Edor
D |\
"Em"Eeed e2BA | GBAF "(A7)"GFEF | "D"Dddc d2AF | "A7"GBAG "D"FDDF |
"Em"Eeed dege | "D"fedf edBA | "G"GABG "D"FGA=c | "Em"BG"B7"AF "Em"GE E :|
|: z |\
"Em"g2ef gebe | gebe "C(A7)"gfef | "D"d2fd Adfd | "A7"ABAG "D"FDDF |
"G"G2BG "D"FGAF | "C(Em)"Eeef "Em"gfed | "G"B2dB "D"AGFA | "Em"BG"B7"AF "Em"GE E :|

%%sep 2 1 500
%%sep 1 1 500

